lib/svgs/team-building.svg

<?xml version="1.0" encoding="UTF-8"?>
<svg width="16px" height="16px" viewBox="0 0 16 16" version="1.1" xmlns="http://www.w3.org/2000/svg" xmlns:xlink="http://www.w3.org/1999/xlink">
    <!-- Generator: sketchtool 51.3 (57544) - http://www.bohemiancoding.com/sketch -->
    <title>team/team-building</title>
    <desc>Created with sketchtool.</desc>
    <defs></defs>
    <g id="Icons" stroke="none" stroke-width="1" fill="none" fill-rule="evenodd">
        <g id="Web" transform="translate(-339.000000, -2394.000000)" fill="#000000">
            <g id="team/team-building" transform="translate(339.000000, 2394.000000)">
                <path d="M14.6666667,16 L15.3333333,16 C15.7333333,16 16,15.7333333 16,15.3333333 L16,9.33333333 C16,8.93333333 15.7333333,8.66666667 15.3333333,8.66666667 L14.6666667,8.66666667 L14.6666667,15.3333333 L14.6666667,16 L14.6666667,16 M1.33333333,15.3333333 L1.33333333,8.66666667 L0.666666667,8.66666667 C0.266666667,8.66666667 8.8817842e-16,8.93333333 8.8817842e-16,9.33333333 L8.8817842e-16,15.3333333 C8.8817842e-16,15.7333333 0.266666667,16 0.666666667,16 L1.33333333,16 L1.33333333,15.3333333 L1.33333333,15.3333333 M12.6666667,0 L3.33333333,0 C2.93333333,0 2.66666667,0.266666667 2.66666667,0.666666667 L2.66666667,15.3333333 C2.66666667,15.7333333 2.93333333,16 3.33333333,16 L7.33333333,16 L7.33333333,13.3333333 L8.66666667,13.3333333 L8.66666667,16 L12.6666667,16 C13.0666667,16 13.3333333,15.7333333 13.3333333,15.3333333 L13.3333333,0.666666667 C13.3333333,0.266666667 13.0666667,0 12.6666667,0 L12.6666667,0 M6.66666667,11.3333333 L4.66666667,11.3333333 L4.66666667,10 L6.66666667,10 L6.66666667,11.3333333 L6.66666667,11.3333333 M6.66666667,8.66666667 L4.66666667,8.66666667 L4.66666667,7.33333333 L6.66666667,7.33333333 L6.66666667,8.66666667 L6.66666667,8.66666667 M6.66666667,6 L4.66666667,6 L4.66666667,4.66666667 L6.66666667,4.66666667 L6.66666667,6 L6.66666667,6 M6.66666667,3.33333333 L4.66666667,3.33333333 L4.66666667,2 L6.66666667,2 L6.66666667,3.33333333 L6.66666667,3.33333333 M11.3333333,11.3333333 L9.33333333,11.3333333 L9.33333333,10 L11.3333333,10 L11.3333333,11.3333333 L11.3333333,11.3333333 M11.3333333,8.66666667 L9.33333333,8.66666667 L9.33333333,7.33333333 L11.3333333,7.33333333 L11.3333333,8.66666667 L11.3333333,8.66666667 M11.3333333,6 L9.33333333,6 L9.33333333,4.66666667 L11.3333333,4.66666667 L11.3333333,6 L11.3333333,6 M11.3333333,3.33333333 L9.33333333,3.33333333 L9.33333333,2 L11.3333333,2 L11.3333333,3.33333333 L11.3333333,3.33333333" id="Shape"></path>
            </g>
        </g>
    </g>
</svg>

<svg xmlns="http://www.w3.org/2000/svg" viewBox="0 0 16 16">
    <path d="M14.667 16h.666c.4 0 .667-.267.667-.667v-6c0-.4-.267-.666-.667-.666h-.666V16m-13.334-.667V8.667H.667c-.4 0-.667.266-.667.666v6c0 .4.267.667.667.667h.666v-.667M12.667 0H3.333c-.4 0-.666.267-.666.667v14.666c0 .4.266.667.666.667h4v-2.667h1.334V16h4c.4 0 .666-.267.666-.667V.667c0-.4-.266-.667-.666-.667m-6 11.333h-2V10h2v1.333m0-2.666h-2V7.333h2v1.334m0-2.667h-2V4.667h2V6m0-2.667h-2V2h2v1.333m4.666 8h-2V10h2v1.333m0-2.666h-2V7.333h2v1.334m0-2.667h-2V4.667h2V6m0-2.667h-2V2h2v1.333"/>
</svg>
